storage/app/icons/phosphoricons/fill/swap-fill.svg

<svg xmlns="http://www.w3.org/2000/svg" fill="currentColor" viewBox="0 0 256 256"><path d="M224 48v104a16 16 0 0 1-16 16h-96v16a8 8 0 0 1-13.66 5.66l-24-24a8 8 0 0 1 0-11.32l24-24A8 8 0 0 1 112 136v16h96V48H96v8a8 8 0 0 1-16 0v-8a16 16 0 0 1 16-16h112a16 16 0 0 1 16 16m-56 144a8 8 0 0 0-8 8v8H48V104h96v16a8 8 0 0 0 13.66 5.66l24-24a8 8 0 0 0 0-11.32l-24-24A8 8 0 0 0 144 72v16H48a16 16 0 0 0-16 16v104a16 16 0 0 0 16 16h112a16 16 0 0 0 16-16v-8a8 8 0 0 0-8-8"/></svg>

<svg xmlns="http://www.w3.org/2000/svg" viewBox="0 0 256 256" fill="currentColor"><path d="M224,48V152a16,16,0,0,1-16,16H112v16a8,8,0,0,1-13.66,5.66l-24-24a8,8,0,0,1,0-11.32l24-24A8,8,0,0,1,112,136v16h96V48H96v8a8,8,0,0,1-16,0V48A16,16,0,0,1,96,32H208A16,16,0,0,1,224,48ZM168,192a8,8,0,0,0-8,8v8H48V104h96v16a8,8,0,0,0,13.66,5.66l24-24a8,8,0,0,0,0-11.32l-24-24A8,8,0,0,0,144,72V88H48a16,16,0,0,0-16,16V208a16,16,0,0,0,16,16H160a16,16,0,0,0,16-16v-8A8,8,0,0,0,168,192Z"/></svg>
